X:1
T:A Prayer in Time of War
T:A Prayer in Time of War
T:Ralph Vaughn Williams, 1906
T:Alfred Noyes, 1915
T:Public Domain Courtesy of the Cyber Hymnal™
T:Public Domain Courtesy of the Cyber Hymnal™
C:Ralph Vaughn Williams, 1906
Z:Public Domain
Z:Courtesy of the Cyber Hymnal™
%%score ( 1 2 ) ( 3 4 )
L:1/8
Q:1/4=108
M:4/4
K:G
V:1 treble 
V:2 treble 
V:3 bass 
V:4 bass 
V:1
 (GF) | [B,E]2 [B,E]2 [CE]2 [A,D]2 | [DG]2 [B,G]2 [DA]2 ([DG][FA]) | [GB]2 [GB]2 (AG) [CE]2 | %4
w: 1.~Thou *|whose deep ways are|in the sea, Whose *|foot- steps are * not|
w: 2.~The *|fool hath said… the|fool hath said… And *|we, who deemed * him|
w: 3.~Grant *|us the sin- gle|heart once more That *|mocks no sac- * red|
 [A,D]6 (GF) | E2 [CE]2 E2 [A,D]2 | [DG]2 [^CG]2 [DA]2 ([EG][=CA]) | [B,B]2 [DB]2 (AG) [CE]2 | %8
w: known, To- *|night a world that|turned from Thee Is *|wait- ing— at * Thy|
w: wise, We, *|who be lieved that|Thou wast dead, How *|should we seek * Thine|
w: thing, The *|sword of truth our|fa- thers wore When *|Thou wast Lord * and|
 [B,E]6 (Bc) | [Fd]2 [FB]2 ([GB][DA]) [DG]2 | [EA]2 [DA]2 [DB]4 | [GB]2 [GB][FA] [DG]2 E2 | %12
w: throne. The *|tower- ing Ba- * bels|that we raised|Where scoff- ing soph- ists|
w: eyes? How *|should we seek * to|Thee for power,|Who scorned Thee yes ter|
w: King. Let *|dark- ness un- * to|dark- ness tell|Our deep un- spo- ken|
 [A,D]6 (GF) | [DE]2 [CE]2 (ED) (EF) | [DG]2 G2 [DA]2 ([DG][=CA]) | [B,B]2 [DB]2 (AG) [CE]2 | %16
w: brawl, The *|lit- tle An- * ti- *|christs we praised— The *|night is on * them|
w: day? How *|should we kneel * in *|this dread hour? Lord, *|teach us how * to|
w: prayer; For, *|while our souls * in *|dark- ness dwell We *|know that Thou * art|
 [B,E]6 |] %17
w: all.|
w: pray.|
w: there.|
V:2
 E2 | x8 | x8 | x4 E2 x2 | x6 D2 | E2 (CB,) x4 | x8 | x4 C2 x2 | x6 E2 | x8 | x8 | x6 (CB,) | %12
 x6 D2 | x4 C2 D2 | x2 (D^C) x4 | x4 E2 x2 | x6 |] %17
V:3
 (B,A,) | [E,G,]2 G,2 [C,G,]2 [C,F,]2 | [B,,G,]2 [E,G,]2 [D,F,]2 ([B,,G,][A,,C]) | %3
 [G,,B,]2 [G,,D]2 [A,,C]2 [A,,G,]2 | (G,4 F,2) [B,,G,]2 | [C,G,]2 G,2 [A,,G,]2 [D,F,]2 | %6
 [B,,G,]2 [E,G,]2 F,2 ([B,,G,][A,,F,]) | [G,,G,]2 [B,,G,]2 [C,E,]2 (E,F,) | [E,G,]6 [E,G,]2 | %9
 [B,,B,]2 [B,D]2 ([E,D][F,C]) [G,B,]2 | (A,G,) [D,F,]2 [G,,G,]4 | %11
 [G,,D]2 [G,,D][A,,C] [B,,B,]2 [C,G,]2 | (G,4 F,2) [B,,G,]2 | [C,G,]2 G,2 [A,,A,]2 [A,C]2 | %14
 ([G,B,][F,A,]) [E,G,]2 [D,F,]2 ([B,,G,][A,,F,]) | [G,,G,]2 [B,,F,]2 [C,E,]2 (E,F,) | [E,,E,G,]6 |] %17
V:4
 E,2 | x2 (E,D,) x4 | x8 | x8 | D,6 x2 | x2 (C,B,,) x4 | x4 (D,C,) x2 | x6 A,,2 | x8 | x8 | %10
 C,2 x6 | x8 | D,6 x2 | x2 (B,,A,,) x4 | x8 | x6 A,,2 | x6 |] %17

